X: 46
M:2/4
L:1/16
K:Eb
uB,2|E4 G>G (3(AF).D|D4 F>F (3(AF).D|\
|:vg2e2 e>gb>g|f2d2 d>fb>d|e2c2 c2b>a|\
f>ed>c B>AG>F|ED (kf4 g>)D|
E2g2- g2b>B|=A>Bc>d e>cA>c|\
(3(Bd).f (3(ec).=A B>_AG>F|E>GB>G e>BG>E|
|:vgeBG Egf=e|fdBF Dfed|ecGE Cedc|dBFD B,>CB,>A,|


